X:1
T:Title
%%score ( 1 2 ) 3
L:1/8
Q:1/4=100
M:3/4
K:Ab
V:1 treble nm="Strings 1, Soprano"
V:2 treble 
V:3 bass nm="Strings 1, Bass"
V:1
 E2 F2 G2 | A4 G2 | F4 A2 | E6 | E2 F2 G2 | A4 A2 | c2 B2 F2 | B6 | d2 c2 B2 | A4 G2 | F4 A2 | c6 | %12
w: William~T.~Meyer,~c.1912 * *||||||||||||
 B2 A2 F2 | E4 B2[Q:1/4=12] |[Q:1/4=100] [CEA]6 | [Ec]2 [Fd]2 [Ec]2 | [=DF]6 | [DB]2 [Ec]2 [DB]2 | %18
w: ||||||
 [CE]6 | [CA]2 [DB]2 [Ec]2 | [Fd]4 [DF]2 | [FA]4 [Fd]2 | [Ec]6 | [Ae]2 [Ec]2 [DB]2 | [CA]4 [EA]2 | %25
w: |||||||
 B2 z2 z2 | [CE]6 | [EA]2 [FB]2 [Fd]2[Q:1/4=99][Q:1/4=97][Q:1/4=96][Q:1/4=94] | %28
w: |||
 [Ec]4 [DB]2[Q:1/4=91][Q:1/4=90][Q:1/4=88][Q:1/4=87][Q:1/4=85][Q:1/4=84][Q:1/4=82][Q:1/4=81][Q:1/4=79][Q:1/4=78][Q:1/4=77][Q:1/4=75][Q:1/4=12] | %29
w: |
[Q:1/4=75] [CA]6 |] %30
w: |
V:2
 z [A,C] z [A,C] z [A,DE] | z [CE] [CE][CE] z [CE] | z [A,D] [A,D][A,D] z [D=E] | %3
 z [A,C] [A,C][A,C] [A,C][A,C] | z [A,C] z [A,C] z [B,C=E] | z [CF] [CF][CF] [CF][CF] | %6
 z [=DF] z [DF] z [B,D] | z [EG] [EG][EG] [EG][EG] | z [DF] z [C=EG] z [CEG] | %9
 z [CF] [CF][CF] z [B,C] | z [A,D] [A,D][A,D] [DF][DF] | [=EG][EG] [EG][EG] [EG][EG] | %12
 z [DF] z [DF] z [A,D] | z [A,C] [A,C][A,C] z [DE] | x6 | x6 | x6 | x6 | x6 | x6 | x6 | x6 | x6 | %23
 x6 | x6 | F2- [FA]2 [DF]2 | x6 | x6 | x6 | x6 |] %30
V:3
 [A,,,A,,]6 | [A,,,A,,]6 | [A,,,A,,]6 | [A,,,A,,]6 | [A,,,A,,]4 [G,,,G,,]2 | [F,,,F,,]6 | %6
w: 1.~Je|Lord,~|life,~|all,~|In~ I~|trust,~|
 [B,,,B,,]6 | [E,,E,]6 | [B,,,B,,]2 [C,,C,]2 [=E,,=E,]2 | [F,,F,]4 [C,,C,]2 | [D,,D,]4 [D,,D,]2 | %11
w: Thee~|hide;~|I~ know~ Thou~|wilt~ not~|let~ me~|
 [C,,C,]6 | [D,,D,]4 [D,,D,]2 | [E,,E,]4 [E,,E,]2 | [A,,E,]6 | [A,,A,]2 [A,,A,]2 [A,,A,]2 | %16
w: fall~|If~ stay~|by~ Thy~|side.~||
 [B,,A,]6 | [E,G,]2 [E,G,]2 [E,G,]2 | [A,,A,]6 | [A,,E,]2 [A,,E,]2 [A,,A,]2 | [D,A,]4 [D,A,]2 | %21
w: |||||
 [D,D]4 [D,A,]2 | [A,,A,]6 | [A,C]2 A,2 [E,G,]2 | [F,A,]4 [C,A,]2 | [D,A,]4 [D,A,]2 | [A,,A,]6 | %27
w: ||||||
 [C,A,]2 [D,A,]2 [D,A,]2 | [E,A,]4 [E,G,]2 | [A,,E,A,]6 |] %30
w: |||

